assets/icons/emote/cool.svg

<?xml version="1.0" encoding="UTF-8" standalone="no"?>
<svg viewBox="0 0 24 24" width="24" height="24" version="1.1" id="svg4" sodipodi:docname="cool.svg" inkscape:version="1.1 (ce6663b3b7, 2021-05-25)"
   xmlns:inkscape="http://www.inkscape.org/namespaces/inkscape"
   xmlns:sodipodi="http://sodipodi.sourceforge.net/DTD/sodipodi-0.dtd"
   xmlns="http://www.w3.org/2000/svg"
   xmlns:svg="http://www.w3.org/2000/svg"
   xmlns:rdf="http://www.w3.org/1999/02/22-rdf-syntax-ns#"
   xmlns:cc="http://creativecommons.org/ns#"
   xmlns:dc="http://purl.org/dc/elements/1.1/">
   <metadata id="metadata10">
      <rdf:RDF>
         <cc:Work rdf:about="">
            <dc:format>image/svg+xml</dc:format>
            <dc:type rdf:resource="http://purl.org/dc/dcmitype/StillImage" />
         </cc:Work>
      </rdf:RDF>
   </metadata>
   <defs id="defs8" />
   <sodipodi:namedview pagecolor="#ffffff" bordercolor="#666666" borderopacity="1" objecttolerance="10" gridtolerance="10" guidetolerance="10" inkscape:pageopacity="0" inkscape:pageshadow="2" inkscape:window-width="1920" inkscape:window-height="1016" id="namedview6" showgrid="true" inkscape:zoom="32" inkscape:cx="5.015625" inkscape:cy="6.140625" inkscape:window-x="0" inkscape:window-y="27" inkscape:window-maximized="1" inkscape:current-layer="svg4" inkscape:pagecheckerboard="0">
      <inkscape:grid type="xygrid" id="grid1406" />
   </sodipodi:namedview>
   <path id="path1232" style="opacity:1;fill:#808080;fill-rule:evenodd;stroke:none;stroke-width:1;stroke-linecap:round" d="m 12,2.625 a 9.375,9.375 0 0 0 -9.375,9.375 9.375,9.375 0 0 0 9.375,9.375 9.375,9.375 0 0 0 9.375,-9.375 9.375,9.375 0 0 0 -9.375,-9.375 z m 0,1.25 a 8.125,8.125 0 0 1 8.125,8.125 8.125,8.125 0 0 1 -8.125,8.125 8.125,8.125 0 0 1 -8.125,-8.125 8.125,8.125 0 0 1 8.125,-8.125 z m -6.875,5 a 3.125,3.75 0 0 0 3.125,3.75 3.125,3.75 0 0 0 2.946777,-2.5 h 1.606446 a 3.125,3.75 0 0 0 2.946777,2.5 3.125,3.75 0 0 0 3.125,-3.75 h -5 -2.5 -1.25 z m 1.25,5 v 0.78125 c 0,0.1078 0.043951,0.307096 0.112305,0.53711 2.2640445,1.507264 8.452318,1.531226 10.895997,0.07569 0.127839,-0.337685 0.19876,-0.614741 0.207518,-0.729979 l 0.03417,-0.664063 c -2.29255,1.629313 -9.0070085,1.629313 -11.2499997,0 z" />
</svg>

<svg width="24" height="24" xmlns="http://www.w3.org/2000/svg"><path style="opacity:1;fill:gray;stroke:none;stroke-width:1;stroke-linecap:round" d="M12 2.625A9.375 9.375 0 0 0 2.625 12 9.375 9.375 0 0 0 12 21.375 9.375 9.375 0 0 0 21.375 12 9.375 9.375 0 0 0 12 2.625zm0 1.25A8.125 8.125 0 0 1 20.125 12 8.125 8.125 0 0 1 12 20.125 8.125 8.125 0 0 1 3.875 12 8.125 8.125 0 0 1 12 3.875zm-6.875 5a3.125 3.75 0 0 0 3.125 3.75 3.125 3.75 0 0 0 2.947-2.5h1.606a3.125 3.75 0 0 0 2.947 2.5 3.125 3.75 0 0 0 3.125-3.75h-8.75zm1.25 5v.781c0 .108.044.307.112.537 2.264 1.508 8.453 1.532 10.896.076.128-.338.2-.615.208-.73l.034-.664c-2.293 1.63-9.007 1.63-11.25 0z"/></svg>
